public/facebook.svg

<svg width="14" height="14" viewBox="0 0 14 14" fill="none" xmlns="http://www.w3.org/2000/svg">
<path d="M13.2335 3.35545V9.86777C13.2335 11.7235 11.7277 13.2335 9.86951 13.2335H6.42339V9.13847H8.08656C8.16527 9.13847 8.23371 9.07684 8.24056 8.99124L8.40482 7.10123C8.41167 7.00878 8.33638 6.93003 8.24056 6.93003H6.42339V5.5947C6.42339 5.28312 6.68005 5.02633 6.99147 5.02633H8.27478C8.36033 5.02633 8.42878 4.95785 8.42878 4.86198V2.97197C8.42878 2.88637 8.36033 2.81789 8.27478 2.81789H6.1154C4.8492 2.81789 3.82255 3.84507 3.82255 5.11193V6.93003H2.67271C2.58715 6.93003 2.51871 6.99851 2.51871 7.09438V8.97412C2.51871 9.06657 2.58715 9.13847 2.67271 9.13847H3.82255V13.2335H3.36398C1.50917 13.2335 0 11.727 0 9.86777V3.35545C0 1.50653 1.50575 0 3.36398 0H9.87293C11.7277 0 13.2335 1.50653 13.2335 3.35545Z" fill="#39FCBF"/>
</svg>

<svg xmlns="http://www.w3.org/2000/svg" width="14" height="14" fill="none" xmlns:v="https://vecta.io/nano"><path d="M13.234 3.355v6.512c0 1.856-1.506 3.366-3.364 3.366H6.423V9.138h1.663c.079 0 .147-.062.154-.147l.164-1.89c.007-.092-.068-.171-.164-.171H6.423V5.595a.57.57 0 0 1 .568-.568h1.283c.086 0 .154-.068.154-.164v-1.89c0-.086-.068-.154-.154-.154H6.115c-1.266 0-2.293 1.027-2.293 2.294V6.93h-1.15c-.086 0-.154.068-.154.164v1.88c0 .092.068.164.154.164h1.15v4.095h-.459C1.509 13.234 0 11.727 0 9.868V3.355C0 1.507 1.506 0 3.364 0h6.509c1.855 0 3.361 1.507 3.361 3.355z" fill="#39fcbf"/></svg>
